svgs/iti.svg

<svg width="192" height="192" viewBox="0 0 192 192" fill="none" xmlns="http://www.w3.org/2000/svg"><circle cx="31" cy="22" r="6" fill="#000"/><circle cx="160" cy="22" r="6" fill="#000"/><path d="M25 76c0-6.627 5.373-12 12-12v106a6 6 0 1 1-12 0V76Zm129-17c6.627 0 12 5.373 12 12v99a6 6 0 1 1-12 0V59Zm-78 8h42a6 6 0 1 1 0 12H76V67Z" fill="#000"/><path d="M118 168c-18.984 4.293-45 4.343-45-30v-4.5" stroke="#000" stroke-width="12"/><circle cx="118" cy="168" r="6" fill="#000"/><path d="M67 38c0-6.627 5.373-12 12-12v112H67V38Z" fill="#000"/></svg>

<svg id="vector" xmlns="http://www.w3.org/2000/svg" width="192" height="192" viewBox="0 0 192 192"><path fill="#000000" d="M31,22m-6,0a6,6 0,1 1,12 0a6,6 0,1 1,-12 0" id="path_0"/><path fill="#000000" d="M160,22m-6,0a6,6 0,1 1,12 0a6,6 0,1 1,-12 0" id="path_1"/><path fill="#000000" d="M25,76C25,69.37 30.37,64 37,64V64V170C37,173.31 34.31,176 31,176V176C27.69,176 25,173.31 25,170V76Z" id="path_2"/><path fill="#000000" d="M154,59V59C160.63,59 166,64.37 166,71V170C166,173.31 163.31,176 160,176V176C156.69,176 154,173.31 154,170V59Z" id="path_3"/><path fill="#000000" d="M76,67H118C121.31,67 124,69.69 124,73V73C124,76.31 121.31,79 118,79H76V67Z" id="path_4"/><path fill="#00000000" d="M118,168C99.02,172.29 73,172.34 73,138V133.5" stroke-width="12" stroke="#000000" id="path_5"/><path fill="#000000" d="M118,168m-6,0a6,6 0,1 1,12 0a6,6 0,1 1,-12 0" id="path_6"/><path fill="#000000" d="M67,38C67,31.37 72.37,26 79,26V26V138H67V38Z" id="path_7"/></svg>
